X:13296
T:Polka de Corrze
C:trad
A:Corrze
O:France
Z:S. Piron
M:2/4
L:1/8
Q:1/4=130
K:C
c'b/2c'/2 d'/2c'/2b/2a/2|ge ed/2e/2|fd de/2d/2|c/2d/2e/2f/2 g2|
c'b/2c'/2 d'/2c'/2b/2a/2|ge ed/2e/2|fd d/2f/2e/2d/2|cec2:|
|:c/2d/2e/2f/2 gc'|ge cd/2e/2|f/2e/2d/2c/2 B/2c/2d/2e/2|1f/2g/2a/2b/2 ag:|2f/2g/2a/2b/2 c'2||
